X: 1
T: Miss McGuinness
M: 4/4
L: 1/8
R: reel
K: Gmaj
|:dG~G2 dGBd | efga bage | dG~G2 dGBd |1 egdB BAAB :|2 egdB BGGz ||
|:agab g3f | egdg egdg |1 agab ~g3f |edgd BAA2 :|2 b3g a3g | edef gage ||
